X:736
M:C|
L:1/8
K:B_
e|dffg bgfd|ecdB Acce|dffg bgfd|ecfF B2 Be|dffg bagf|ecdB Accd|

